assets/Tokyo tower/Flat/tokyo_tower_flat.svg

<svg width="32" height="32" viewBox="0 0 32 32" fill="none" xmlns="http://www.w3.org/2000/svg">
<path d="M16.75 11.4486V13.5067L15.25 13.4971V11.4386C15.0581 12.1104 14.8505 12.7963 14.6324 13.4931L13.0679 13.483C13.447 12.2781 13.7974 11.1112 14.0928 10H17.9369C18.2043 11.0914 18.5235 12.277 18.8873 13.5205L17.3143 13.5104C17.1111 12.8021 16.9225 12.1127 16.75 11.4486Z" fill="#FF6723"/>
<path d="M19.8086 16.4933V16.5L12.0966 16.5C11.935 16.9967 11.7723 17.4971 11.6101 18C11.5535 18.1756 11.4969 18.3516 11.4405 18.5278C11.4028 18.6455 11.3652 18.7633 11.3276 18.8812C10.8486 20.3798 10.3131 21.8451 9.72484 23.2764C9.54782 23.707 9.36602 24.1345 9.17955 24.559C8.51154 26.0795 7.78347 27.5601 7 29H6.50927C6.22967 29 6 29.2255 6 29.5C6 29.7745 6.22967 30 6.50927 30H12.4907C12.7703 30 13 29.7745 13 29.5C13 29.2255 12.7703 29 12.4907 29H12.0772C12.447 27.1828 14.0661 25.8124 16.005 25.8124C17.9439 25.8124 19.563 27.1828 19.9328 29H19.5093C19.2297 29 19 29.2255 19 29.5C19 29.7745 19.2297 30 19.5093 30H25.4907C25.7703 30 26 29.7745 26 29.5C26 29.2255 25.7703 29 25.4907 29H25C24.2655 27.6495 23.5541 26.1687 22.8784 24.6221C22.6969 24.2066 22.5179 23.7863 22.3418 23.3625C21.6892 21.7925 21.0755 20.1744 20.5129 18.5716C20.4468 18.3833 20.3814 18.1952 20.3167 18.0074C20.2047 17.6821 20.0949 17.3578 19.9873 17.035C19.927 16.8539 19.8674 16.6734 19.8086 16.4933ZM15.25 23.5H12.4444L15.25 21.7863V23.5ZM11.8304 21.9902C12.1589 21.1078 12.4647 20.2199 12.7468 19.328L14.4655 20.3807L11.8304 21.9902ZM20.1717 22.0053L17.5353 20.3904L19.1968 19.3755C19.5081 20.2533 19.8338 21.1333 20.1717 22.0053ZM16.75 18.9853V18H18.363L16.75 18.9853ZM15.25 18.9906L13.6328 18H15.25V18.9906ZM16.75 21.78L19.5579 23.5H16.75V21.78ZM21.3966 25C21.7689 25.8609 22.1512 26.7013 22.5414 27.5105H20.9922C20.4955 26.4393 19.6608 25.5613 18.6359 25H21.3966ZM13.3483 25C12.326 25.5598 11.4936 26.4357 10.9978 27.5105H9.44864C9.85673 26.681 10.2454 25.8437 10.6138 25H13.3483Z" fill="#FF6723"/>
<path d="M17.128 6C17.2096 6.58319 17.329 7.25564 17.4828 8H14.5728C14.7192 7.30108 14.8331 6.63259 14.9064 6H17.128Z" fill="#FF6723"/>
<path d="M14.9985 4H17.0015L17.0044 2.99301C16.9944 2.45679 16.5547 2.00993 16.005 2H15.995C15.4453 2 14.9956 2.44686 14.9956 2.99301L14.9985 4Z" fill="#FF6723"/>
<path d="M17.13 6L17.1289 5.99085C17.0594 5.4548 17 4.99717 17 4.5V4H15.0001L15 4.55C15 5.01 14.96 5.5 14.9 6H17.13Z" fill="#E6E6E6"/>
<path d="M19.3473 13.5235L12.5663 13.4797C12.3042 13.4797 12.0945 13.6727 12.0945 13.9138L12.0945 16.5H19.8086V13.9576C19.8191 13.7164 19.6094 13.5235 19.3473 13.5235Z" fill="#E6E6E6"/>
<path d="M17.9401 10H14.1C14.28 9.31 14.4401 8.64 14.5701 8H17.5C17.62 8.62 17.7701 9.29 17.9401 10Z" fill="#E6E6E6"/>
</svg>

<svg xmlns="http://www.w3.org/2000/svg" width="32" height="32" fill="none"><path fill="#FF6723" d="M16.75 11.449v2.058l-1.5-.01V11.44c-.192.671-.4 1.357-.618 2.054l-1.564-.01c.379-1.205.73-2.372 1.025-3.483h3.844a82.87 82.87 0 0 0 .95 3.52l-1.573-.01a84.865 84.865 0 0 1-.564-2.061ZM19.809 16.493v.007h-7.712a617.63 617.63 0 0 0-.77 2.381A58.06 58.06 0 0 1 7 29h-.49c-.28 0-.51.226-.51.5s.23.5.51.5h5.98c.28 0 .51-.226.51-.5s-.23-.5-.51-.5h-.413a4.004 4.004 0 0 1 3.928-3.188A4.004 4.004 0 0 1 19.933 29h-.424c-.28 0-.509.226-.509.5s.23.5.51.5h5.98c.28 0 .51-.226.51-.5s-.23-.5-.51-.5H25a56.983 56.983 0 0 1-2.122-4.378c-.181-.415-.36-.836-.536-1.26a91.54 91.54 0 0 1-2.025-5.355 104.406 104.406 0 0 1-.508-1.514ZM15.25 23.5h-2.806l2.806-1.714V23.5Zm-3.42-1.51c.329-.882.635-1.77.917-2.662l1.719 1.053-2.636 1.61Zm8.342.015-2.637-1.615 1.662-1.015c.311.878.637 1.758.975 2.63Zm-3.422-3.02V18h1.613l-1.613.985Zm-1.5.006L13.633 18h1.617v.99Zm1.5 2.789 2.808 1.72H16.75v-1.72ZM21.397 25c.372.86.754 1.701 1.144 2.51h-1.549A5.52 5.52 0 0 0 18.636 25h2.76Zm-8.049 0a5.492 5.492 0 0 0-2.35 2.51h-1.55c.409-.829.797-1.666 1.166-2.51h2.734ZM17.128 6c.082.583.201 1.256.355 2h-2.91c.146-.699.26-1.367.333-2h2.222ZM14.998 4h2.004l.002-1.007A1.02 1.02 0 0 0 16.005 2h-.01a1 1 0 0 0-1 .993L15 4Z"/><path fill="#E6E6E6" d="m17.13 6-.001-.01C17.059 5.456 17 4.998 17 4.5V4h-2v.55c0 .46-.04.95-.1 1.45h2.23ZM19.347 13.524l-6.78-.044c-.263 0-.473.193-.473.434V16.5h7.715v-2.542c.01-.242-.2-.434-.462-.434ZM17.94 10H14.1c.18-.69.34-1.36.47-2h2.93c.12.62.27 1.29.44 2Z"/></svg>
